Numix-Light/16/status/indicator-keyboard-Ee.svg

<?xml version="1.0" encoding="UTF-8" standalone="no"?>
<svg
   xmlns:dc="http://purl.org/dc/elements/1.1/"
   xmlns:cc="http://creativecommons.org/ns#"
   xmlns:rdf="http://www.w3.org/1999/02/22-rdf-syntax-ns#"
   xmlns:svg="http://www.w3.org/2000/svg"
   xmlns="http://www.w3.org/2000/svg"
   xmlns:sodipodi="http://sodipodi.sourceforge.net/DTD/sodipodi-0.dtd"
   xmlns:inkscape="http://www.inkscape.org/namespaces/inkscape"
   viewBox="0 0 16 16"
   id="svg2"
   version="1.1"
   inkscape:version="0.91 r13725"
   sodipodi:docname="indicator-keyboard-Ee.svg">
  <metadata
     id="metadata13">
    <rdf:RDF>
      <cc:Work
         rdf:about="">
        <dc:format>image/svg+xml</dc:format>
        <dc:type
           rdf:resource="http://purl.org/dc/dcmitype/StillImage" />
      </cc:Work>
    </rdf:RDF>
  </metadata>
  <defs
     id="defs11" />
  <sodipodi:namedview
     pagecolor="#ffffff"
     bordercolor="#666666"
     borderopacity="1"
     objecttolerance="10"
     gridtolerance="10"
     guidetolerance="10"
     inkscape:pageopacity="0"
     inkscape:pageshadow="2"
     inkscape:window-width="640"
     inkscape:window-height="480"
     id="namedview9"
     showgrid="false"
     inkscape:zoom="14.75"
     inkscape:cx="8"
     inkscape:cy="8"
     inkscape:window-x="65"
     inkscape:window-y="24"
     inkscape:window-maximized="0"
     inkscape:current-layer="svg2" />
  <path
     style="fill:#353535;fill-opacity:1"
     d="M 1.5996094 0 C 0.71320937 2.9605947e-16 0 0.71320937 0 1.5996094 L 0 14.400391 C 2.9605947e-16 15.286791 0.71320937 16 1.5996094 16 L 14.400391 16 C 15.286791 16 16 15.286791 16 14.400391 L 16 1.5996094 C 16 0.71320937 15.286791 0 14.400391 0 L 1.5996094 0 z M 3.7089844 4.8320312 L 7.3085938 4.8320312 L 7.3085938 5.3632812 L 4.3203125 5.3632812 L 4.3203125 7.53125 L 6.984375 7.53125 L 6.984375 8.0546875 L 4.3203125 8.0546875 L 4.3203125 10.537109 L 7.5429688 10.537109 L 7.5429688 11.068359 L 3.7089844 11.068359 L 3.7089844 4.8320312 z M 10.419922 6.3085938 C 10.989922 6.3085938 11.443297 6.4932344 11.779297 6.8652344 C 12.121297 7.2372344 12.291016 7.8119375 12.291016 8.5859375 C 12.291016 8.6339375 12.289203 8.6805156 12.283203 8.7285156 C 12.283203 8.7765156 12.279438 8.8212812 12.273438 8.8632812 L 9.0058594 8.8632812 C 9.0238594 9.4332813 9.1656875 9.8717345 9.4296875 10.177734 C 9.6936875 10.483734 10.113453 10.636719 10.689453 10.636719 C 11.007453 10.636719 11.259312 10.606875 11.445312 10.546875 C 11.631312 10.486875 11.767563 10.436531 11.851562 10.394531 L 11.958984 10.898438 C 11.874984 10.946438 11.716422 11.002359 11.482422 11.068359 C 11.254422 11.134359 10.983875 11.167969 10.671875 11.167969 C 10.263875 11.167969 9.9149535 11.108281 9.6269531 10.988281 C 9.3389531 10.868281 9.1020156 10.700375 8.9160156 10.484375 C 8.7300156 10.268375 8.5957187 10.01275 8.5117188 9.71875 C 8.4277188 9.41875 8.3847656 9.0922813 8.3847656 8.7382812 C 8.3847656 8.3302812 8.4426406 7.9757812 8.5566406 7.6757812 C 8.6766406 7.3697812 8.829625 7.1141563 9.015625 6.9101562 C 9.207625 6.7061563 9.4240625 6.5569375 9.6640625 6.4609375 C 9.9100628 6.3589375 10.161922 6.3085938 10.419922 6.3085938 z M 10.427734 6.8300781 C 10.217734 6.8300781 10.029328 6.8710781 9.8613281 6.9550781 C 9.6993281 7.0390781 9.5556875 7.1548281 9.4296875 7.2988281 C 9.3096875 7.4368281 9.212625 7.5972031 9.140625 7.7832031 C 9.074625 7.9692031 9.0373906 8.1651406 9.0253906 8.3691406 L 11.689453 8.3691406 C 11.677453 7.8831406 11.561703 7.504375 11.345703 7.234375 C 11.129703 6.964375 10.823734 6.8300781 10.427734 6.8300781 z "
     id="path4" />
</svg>

<svg xmlns="http://www.w3.org/2000/svg" viewBox="0 0 16 16">
 <path d="m 1.6 0 c -0.886 0 -1.6 0.713 -1.6 1.6 l 0 12.801 c 0 0.886 0.713 1.6 1.6 1.6 l 12.801 0 c 0.886 0 1.6 -0.713 1.6 -1.6 l 0 -12.801 c 0 -0.886 -0.713 -1.6 -1.6 -1.6 l -12.801 0 z m 2.109 4.832 l 3.6 0 l 0 0.531 l -2.988 0 l 0 2.168 l 2.664 0 l 0 0.523 l -2.664 0 l 0 2.482 l 3.223 0 l 0 0.531 l -3.834 0 l 0 -6.236 z m 6.711 1.477 c 0.57 0 1.023 0.185 1.359 0.557 c 0.342 0.372 0.512 0.947 0.512 1.721 c 0 0.048 -0.002 0.095 -0.008 0.143 c 0 0.048 -0.004 0.093 -0.01 0.135 l -3.268 0 c 0.018 0.57 0.16 1.01 0.424 1.314 c 0.264 0.306 0.684 0.459 1.26 0.459 c 0.318 0 0.57 -0.03 0.756 -0.09 c 0.186 -0.06 0.322 -0.11 0.406 -0.152 l 0.107 0.504 c -0.084 0.048 -0.243 0.104 -0.477 0.17 c -0.228 0.066 -0.499 0.1 -0.811 0.1 c -0.408 0 -0.757 -0.06 -1.045 -0.18 c -0.288 -0.12 -0.525 -0.288 -0.711 -0.504 c -0.186 -0.216 -0.32 -0.472 -0.404 -0.766 c -0.084 -0.3 -0.127 -0.626 -0.127 -0.98 c 0 -0.408 0.058 -0.762 0.172 -1.062 c 0.12 -0.306 0.273 -0.562 0.459 -0.766 c 0.192 -0.204 0.408 -0.353 0.648 -0.449 c 0.246 -0.102 0.498 -0.152 0.756 -0.152 z m 0.008 0.521 c -0.21 0 -0.398 0.041 -0.566 0.125 c -0.162 0.084 -0.306 0.2 -0.432 0.344 c -0.12 0.138 -0.217 0.298 -0.289 0.484 c -0.066 0.186 -0.103 0.382 -0.115 0.586 l 2.664 0 c -0.012 -0.486 -0.128 -0.865 -0.344 -1.135 c -0.216 -0.27 -0.522 -0.404 -0.918 -0.404 z" style="fill:#353535;fill-opacity:1"/>
</svg>
